X:6
T:Joskvarnsleken
R:vals
Z:taught by Roger Tallroth at Ramblewood (199)
M:3/4
L:1/8
K:D
| "D"d3 edc \
| "D"d2 c2 "A"Ac \
| "G"c2 B2 G2 \
| "D"A2 F2 D2 \
| "D"D6 \
| "D"D6 \
| "D"d3 edc \
| "D"d2 c2 "A"Ac \
| "G"c2 B2 G2 \
| [1 "A"A6 \
| "A"A6 \
:| [2 "D"A6 \
| "A"A4 FG ||
| "D"A3 BAG \
| "D"F2 D2 FA \
| "A"E2 C2 EG \
| "D"F2 DEFG \
| "D"A3 BAG \
| "D"F2 D2 FA \
| "A"E2 C2 C2 \
| [1 "D"D4 FG \
:| [2 "D"D6 \
| D6 ||
P:B Alternative
K:Dmix
| "D"A3 BAG \
| "D"F2 D2 FA \
| "C"E2 C2 EG \
| "D"F2 DEFG \
| "D"A3 BAG \
| "D"F2 D2 FA \
| "C"E2 C2 C2 \
| [1 "D"D4 FG \
:| [2 "D"D6 \
| D6 |]
